X:1
T:My House Will Stand
T:My House Will Stand
T:Daniel Brink Towner
T:Herbert J. Bryce, 1918
T:Public Domain Courtesy of the Cyber Hymnal™
T:Public Domain Courtesy of the Cyber Hymnal™
C:Daniel Brink Towner
Z:Public Domain
Z:Courtesy of the Cyber Hymnal™
%%score ( 1 2 ) ( 3 4 )
L:1/8
Q:1/4=103
M:4/4
K:Eb
V:1 treble 
V:2 treble 
V:3 bass 
V:4 bass 
V:1
 E[EG] | [GB]2 [GB][EB] [EB]2 [EG][GB] | [Ac]2 [Ac]>[Ac] [GB]2 [GB][GB] | %3
w: 1.~Are you|build- ing your house on the|rock or the sand, Are you|
w: 2.~O the|Lord is the Rock; our foun-|da- tion is tried, And is|
w: 3.~Though the|bil- lows may beat and the|hur- ri- cane blow, I am|
 [Ec] [Ec]2 [Ec] [EB]2 [EG][EG] | [GB]2 [GB]>[EB] !fermata![DF]2 E[EG] | %5
w: liv- ing for time or the|ag- es to be? Do you|
w: change- less to- day as in|cen- tu- ries flown, Though by|
w: fear- less and calm in the|face of the gale; For the|
 [GB]2 [GB][GB] [GB] [GB]2 [GB] | [Ac]2 [Ac][Ad] !fermata![Ge]2 ([Ae][Ae]) | %7
w: know that your struc- ture, though|shak- en, will stand, Un- *|
w: men once re- ject- ed, He|still doth a- bide, He’s~the *|
w: Word of Je- ho- vah is|sure, and I know, Having *|
 [Ae]2 [Ad][Ec] [Ec] [EB]2 [EG] | [GB]2 [FA]>[DF] !fermata!E3 ||"^Refrain" B | [Ge]2 e2 [Ge]3 B | %11
w: harmed by the tem- pests which|sweep o’er the sea?|||
w: blest Rock of Ag- es, the|great Liv- ing Stone.|Let|rains de- scend and|
w: built on my Sav- ior, they|can- not pre- vail.|||
 [Ac]2 [Ac]2 [GB]3 B | [Bf]2 f2 [=Af]3 [Bd] | [Fd]2 c2 [DB]3 [FB] | e2 e2 [Ge]3 B | %15
w: ||||
w: tem- pests sweep; Let|floods a- rise and|bil- lows leap; My|house will stand ’neath|
w: ||||
 [Ac]2 [Ac]2 [GB]3 [GB] | [Ac]2 [Ae]2 [Ge]3 [GB] | [Ac]2 [Ad]2 !fermata![Ge]2 |] %18
w: |||
w: ev- ery shock, For|I have built up-|on the Rock|
w: |||
V:2
 E x | x8 | x8 | x8 | x6 E x | x8 | x8 | x8 | x4 E3 || B | x2 (BA) x2 B x | x7 B | x2 (cB) x4 | %13
 x2 (FE) x4 | (EG) (BA) x2 B x | x8 | x8 | x6 |] %18
V:3
 [E,G,][E,B,] | [E,E]2 [E,B,][E,G,] [E,G,]2 [E,B,][E,E] | [A,E]2 [A,E]>[A,E] [E,E]2 [E,E][E,E] | %3
 A, A,2 A, [E,G,]2 [E,B,][E,B,] | [E,E]2 [E,E]>[G,B,] !fermata!B,2 [E,G,][E,B,] | %5
 [E,E]2 [E,E][E,E] [E,E] [E,E]2 [E,E] | [A,E]2 [A,E][F,B,] !fermata![E,B,]2 ([E,B,][E,B,]) | %7
 [A,C]2 [A,B,]A, [E,A,] [E,G,]2 [E,B,] | [B,,E]2 [B,,B,]>[B,,A,] !fermata![E,G,]3 || B, | %10
 B,2 B,2 [E,B,]3 [G,E] | E2 E2 [E,E]3 [G,E] | D2 C2 [F,C]3 [F,B,] | %13
 B,2 ([=A,C][F,A,]) B,3 [_A,B,] | B,2 B,2 [E,B,]3 [G,E] | E2 E2 [E,E]3 [E,E] | %16
 [A,E]2 [A,C]2 [E,B,]3 [E,E] | [B,,B,D]2 (B,A,) !fermata![E,B,]2 |] %18
V:4
 x2 | x8 | x8 | A, A,2 A, x4 | x4 B,2 x2 | x8 | x8 | x3 A, x4 | x7 || B, | (E,B,) (G,F,) x4 | %11
 (A,B,) (CA,) x4 | (F,B,) (=A,G,) x4 | (E,B,) x B,3 x2 | (G,B,) (G,F,) x4 | (A,B,) (CA,) x4 | x8 | %17
 x2 [B,,B,]2 x2 |] %18

